X:1
T:Edelweiss
T:Edelweiss
L:1/8
M:3/4
K:G
V:1 treble-8 nm="Classical Guitar" snm="Guit."
V:1
"Am7" A,G [ce]2 A,2 |"D7b9" DF [c_e]4 ||"G" [G,DGB]2 D2 [Gd]2 |"D/F#" [F,Ada]2 [Ad]2 [Ad]2 | %4
"Em7" [E,Gdg]2 B,2 [Gd]2 |"Am7" [A,EGc]2 [EG]2 [EG]2 |"G" [G,DGB]2 D2 [G,DGB]F, | %7
"Em" [E,EGB]2 [Gc]2 [Gd]2 |"Am7" [A,Gce]2 [Gc]2 [Gc]2 |"D" [DGcd]2 [Gc]2 [Gc]2 | %10
"G" [G,DGB]2 D2 [Gd]2 |"D/F#" [F,Ada]2 [Ad]2 [Ad]2 |"Em7" [E,Gdg]2 B,2 [Gd]2 | %13
"C" [CEGc]2 [EG]2 [EG]2 |"G" [G,DGB]2 D2 [DGd]2 |"D7" [DFcd]2"C/E" [EGce]2"D/F#" [FAdf]2 | %16
"G" [G,Gdg]2 D2 A,B, | [G,Gdg]6 |"D7" [DFca]2 [Fd]2 [Fd]2 | [Af]2 [Ge]2 [Fd]2 | %20
"G" [G,DGB]2 [DG]2 [G,DGd]2 | [G,DGdg]2 [DG]2 [G,DG]^G, |"A7" [A,G^ce]2 E2 [Gcg]2 | %23
 [A,G^ca]2 E2 [cg]2 |"D" [DAdf]2 [Ad]2 [Ad]2 |"D7" [DFcd]2 [Fc]2 [Fc]2 |"G" [G,DGB]2 D2 [Gd]2 | %27
"G9/F" [=F,da]2 [Dd]2 [Dd]2 |"Em7" [E,Gdg]2 [EG]2 [Gd]2 |"Cm" [C_EGc]2 [EG]2 [EG]2 | %30
"G" [G,DGB]2 D2 [Gd]2 |"D7" [DFcd]2"C/E" [EGce]2"D/F#" [FAdf]2 |"Cm6" [CA_eg]6 |"G/B" [B,Gdg]6 |] %34

